X:1
T:Title
%%score { 1 | 2 }
L:1/8
Q:1/4=100
M:2/4
K:Bb
V:1 treble nm="Grand Piano"
V:2 bass 
V:1
 DD [DF][DF] | d2 B2 | c2 BA | [DB]4 | [B,D][B,D] [DF][DF] | d2 B2 | c2 BA | [DB]4 | c2 dd | c4 | %10
w: Thomas~Hastings * * *||||||||||
 [Fd]2 [Ff][Fd] | c4 | DD [DF][DF] | d2 B2 | c2 BA | [DB]4 |] %16
w: ||||||
V:2
 [B,,F,B,][B,,F,B,] [B,,B,][B,,B,] | [B,F]2 [B,D]2 | [E,G,E]2 [F,D][F,C] | [B,,F,]4 | %4
 [B,,F,][B,,F,] [B,,B,][B,,B,] | [B,F]2 [B,D]2 | [E,G,E]2 [F,D][F,C] | [B,,F,]4 | %8
 [F,A,F]2[K:treble] [B,F][B,F] | [F,A,F]4 | [B,,B,]2 [D,B,][B,,B,] | [F,,A,F]4 | %12
 [B,,F,B,][B,,F,B,] [B,,B,][B,,B,] | [B,F]2 [B,D]2 | [E,G,E]2 [F,D][F,C] | [B,,F,]4 |] %16

